icons/svg/road_shields/h_us_state_connector_icon_shield.svg

<?xml version="1.0" encoding="UTF-8" standalone="no"?>
<!-- Generator: Adobe Illustrator 16.0.4, SVG Export Plug-In . SVG Version: 6.00 Build 0)  -->

<svg
   xmlns:dc="http://purl.org/dc/elements/1.1/"
   xmlns:cc="http://creativecommons.org/ns#"
   xmlns:rdf="http://www.w3.org/1999/02/22-rdf-syntax-ns#"
   xmlns:svg="http://www.w3.org/2000/svg"
   xmlns="http://www.w3.org/2000/svg"
   xmlns:sodipodi="http://sodipodi.sourceforge.net/DTD/sodipodi-0.dtd"
   xmlns:inkscape="http://www.inkscape.org/namespaces/inkscape"
   version="1.1"
   id="Слой_1"
   x="0px"
   y="0px"
   width="25"
   height="33"
   viewBox="0 0 25 33"
   enable-background="new 0 0 17.143 17.17"
   xml:space="preserve"
   inkscape:version="0.91 r"
   sodipodi:docname="h_us_state_connector_icon_shield.svg"><metadata
     id="metadata13"><rdf:RDF><cc:Work
         rdf:about=""><dc:format>image/svg+xml</dc:format><dc:type
           rdf:resource="http://purl.org/dc/dcmitype/StillImage" /><dc:title /></cc:Work></rdf:RDF></metadata><defs
     id="defs11" /><sodipodi:namedview
     pagecolor="#ffffff"
     bordercolor="#666666"
     borderopacity="1"
     objecttolerance="10"
     gridtolerance="10"
     guidetolerance="10"
     inkscape:pageopacity="0"
     inkscape:pageshadow="2"
     inkscape:window-width="1920"
     inkscape:window-height="1004"
     id="namedview9"
     showgrid="false"
     inkscape:zoom="22.627418"
     inkscape:cx="4.2958357"
     inkscape:cy="28.045226"
     inkscape:window-x="1680"
     inkscape:window-y="0"
     inkscape:window-maximized="1"
     inkscape:current-layer="Слой_1" /><rect
     style="color:#000000;clip-rule:evenodd;display:inline;overflow:visible;visibility:visible;opacity:1;isolation:auto;mix-blend-mode:normal;color-interpolation:sRGB;color-interpolation-filters:linearRGB;solid-color:#000000;solid-opacity:1;fill:#ffffff;fill-opacity:1;fill-rule:evenodd;stroke:#515151;stroke-width:1.08273661;stroke-linecap:butt;stroke-linejoin:miter;stroke-miterlimit:4;stroke-dasharray:none;stroke-dashoffset:0;stroke-opacity:1;marker:none;color-rendering:auto;image-rendering:auto;shape-rendering:auto;text-rendering:auto;enable-background:accumulate"
     id="rect4135"
     width="23.91383"
     height="7.0026789"
     x="0.5612734"
     y="0.54228777"
     ry="0" /><path
     inkscape:connector-curvature="0"
     id="path4148"
     style="font-style:normal;font-variant:normal;font-weight:bold;font-stretch:normal;font-size:medium;line-height:125%;font-family:Sans;-inkscape-font-specification:'Sans Bold';letter-spacing:0px;word-spacing:0px;fill:#515151;fill-opacity:1;stroke:none;stroke-width:1px;stroke-linecap:butt;stroke-linejoin:miter;stroke-opacity:1"
     d="m 3.5721362,5.6781801 q -0.1636841,0.1342773 -0.3412659,0.2026367 -0.1775818,0.068359 -0.3706055,0.068359 -0.5759828,0 -0.9126161,-0.5078121 -0.3366334,-0.5102539 -0.3366334,-1.381836 0,-0.8740234 0.3366334,-1.3818359 0.3366333,-0.5102539 0.9126161,-0.5102539 0.1930237,0 0.3706055,0.068359 0.1775818,0.068359 0.3412659,0.2026367 l 0,0.7543945 Q 3.406908,3.0146058 3.2463122,2.931598 3.0857165,2.84859 2.9081347,2.84859 q -0.3181031,0 -0.5003175,0.3222656 -0.1822144,0.3222657 -0.1822144,0.8886719 0,0.5639649 0.1822144,0.8862305 0.1822144,0.3222656 0.5003175,0.3222656 0.1775818,0 0.3381775,-0.083008 0.1605958,-0.083008 0.325824,-0.2612305 l 0,0.7543946 z" /><path
     inkscape:connector-curvature="0"
     id="path4150"
     style="font-style:normal;font-variant:normal;font-weight:bold;font-stretch:normal;font-size:medium;line-height:125%;font-family:Sans;-inkscape-font-specification:'Sans Bold';letter-spacing:0px;word-spacing:0px;fill:#515151;fill-opacity:1;stroke:none;stroke-width:1px;stroke-linecap:butt;stroke-linejoin:miter;stroke-opacity:1"
     d="m 5.1194143,2.8485902 q -0.2717774,0 -0.4215638,0.3173828 -0.1497864,0.3173828 -0.1497864,0.8935547 0,0.5737305 0.1497864,0.8911133 0.1497864,0.3173828 0.4215638,0.3173828 0.2733216,0 0.423108,-0.3173828 0.1497864,-0.3173828 0.1497864,-0.8911133 0,-0.5761719 -0.1497864,-0.8935547 Q 5.3927359,2.8485902 5.1194143,2.8485902 Z m 0,-0.6811523 q 0.5559083,0 0.870923,0.5029297 0.3150147,0.5029297 0.3150147,1.3891601 0,0.8837891 -0.3150147,1.3867188 -0.3150147,0.5029299 -0.870923,0.5029299 -0.5543641,0 -0.870923,-0.5029299 -0.3150147,-0.5029297 -0.3150147,-1.3867188 0,-0.8862304 0.3150147,-1.3891601 0.3165589,-0.5029297 0.870923,-0.5029297 z" /><path
     inkscape:connector-curvature="0"
     id="path4152"
     style="font-style:normal;font-variant:normal;font-weight:bold;font-stretch:normal;font-size:medium;line-height:125%;font-family:Sans;-inkscape-font-specification:'Sans Bold';letter-spacing:0px;word-spacing:0px;fill:#515151;fill-opacity:1;stroke:none;stroke-width:1px;stroke-linecap:butt;stroke-linejoin:miter;stroke-opacity:1"
     d="m 6.753167,2.2333558 0.6640017,0 0.8384946,2.5 0,-2.5 0.5636297,0 0,3.6450196 -0.6640017,0 -0.8384953,-2.5 0,2.5 -0.563629,0 0,-3.6450196 z" /><path
     inkscape:connector-curvature="0"
     id="path4154"
     style="font-style:normal;font-variant:normal;font-weight:bold;font-stretch:normal;font-size:medium;line-height:125%;font-family:Sans;-inkscape-font-specification:'Sans Bold';letter-spacing:0px;word-spacing:0px;fill:#515151;fill-opacity:1;stroke:none;stroke-width:1px;stroke-linecap:butt;stroke-linejoin:miter;stroke-opacity:1"
     d="m 9.4029964,2.2333558 0.6640016,0 0.838495,2.5 0,-2.5 0.563629,0 0,3.6450196 -0.664001,0 -0.8384949,-2.5 0,2.5 -0.5636297,0 0,-3.6450196 z" /><path
     inkscape:connector-curvature="0"
     id="path4156"
     style="font-style:normal;font-variant:normal;font-weight:bold;font-stretch:normal;font-size:medium;line-height:125%;font-family:Sans;-inkscape-font-specification:'Sans Bold';letter-spacing:0px;word-spacing:0px;fill:#515151;fill-opacity:1;stroke:none;stroke-width:1px;stroke-linecap:butt;stroke-linejoin:miter;stroke-opacity:1"
     d="m 12.052826,2.2333558 1.604413,0 0,0.7104493 -1.0099,0 0,0.6787109 0.949677,0 0,0.7104492 -0.949677,0 0,0.834961 1.043872,0 0,0.7104492 -1.638385,0 0,-3.6450196 z" /><path
     inkscape:connector-curvature="0"
     id="path4158"
     style="font-style:normal;font-variant:normal;font-weight:bold;font-stretch:normal;font-size:medium;line-height:125%;font-family:Sans;-inkscape-font-specification:'Sans Bold';letter-spacing:0px;word-spacing:0px;fill:#515151;fill-opacity:1;stroke:none;stroke-width:1px;stroke-linecap:butt;stroke-linejoin:miter;stroke-opacity:1"
     d="m 16.043012,5.6781801 q -0.163684,0.1342773 -0.341266,0.2026367 -0.177581,0.068359 -0.370605,0.068359 -0.575983,0 -0.912616,-0.5078121 -0.336634,-0.5102539 -0.336634,-1.381836 0,-0.8740234 0.336634,-1.3818359 0.336633,-0.5102539 0.912616,-0.5102539 0.193024,0 0.370605,0.068359 0.177582,0.068359 0.341266,0.2026367 l 0,0.7543945 Q 15.877784,3.0146058 15.717188,2.931598 15.556592,2.84859 15.37901,2.84859 q -0.318102,0 -0.500317,0.3222656 -0.182214,0.3222657 -0.182214,0.8886719 0,0.5639649 0.182214,0.8862305 0.182215,0.3222656 0.500317,0.3222656 0.177582,0 0.338178,-0.083008 0.160596,-0.083008 0.325824,-0.2612305 l 0,0.7543946 z" /><path
     inkscape:connector-curvature="0"
     id="path4160"
     style="font-style:normal;font-variant:normal;font-weight:bold;font-stretch:normal;font-size:medium;line-height:125%;font-family:Sans;-inkscape-font-specification:'Sans Bold';letter-spacing:0px;word-spacing:0px;fill:#515151;fill-opacity:1;stroke:none;stroke-width:1px;stroke-linecap:butt;stroke-linejoin:miter;stroke-opacity:1"
     d="m 16.262287,2.2333558 2.124805,0 0,0.7104493 -0.764374,0 0,2.9345703 -0.594513,0 0,-2.9345703 -0.765918,0 0,-0.7104493 z" /><path
     inkscape:connector-curvature="0"
     id="path4162"
     style="font-style:normal;font-variant:normal;font-weight:bold;font-stretch:normal;font-size:medium;line-height:125%;font-family:Sans;-inkscape-font-specification:'Sans Bold';letter-spacing:0px;word-spacing:0px;fill:#515151;fill-opacity:1;stroke:none;stroke-width:1px;stroke-linecap:butt;stroke-linejoin:miter;stroke-opacity:1"
     d="m 19.745979,2.8485902 q -0.271777,0 -0.421564,0.3173828 -0.149786,0.3173828 -0.149786,0.8935547 0,0.5737305 0.149786,0.8911133 0.149787,0.3173828 0.421564,0.3173828 0.273322,0 0.423108,-0.3173828 0.149786,-0.3173828 0.149786,-0.8911133 0,-0.5761719 -0.149786,-0.8935547 -0.149786,-0.3173828 -0.423108,-0.3173828 z m 0,-0.6811523 q 0.555909,0 0.870923,0.5029297 0.315015,0.5029297 0.315015,1.3891601 0,0.8837891 -0.315015,1.3867188 -0.315014,0.5029299 -0.870923,0.5029299 -0.554364,0 -0.870923,-0.5029299 -0.315015,-0.5029297 -0.315015,-1.3867188 0,-0.8862304 0.315015,-1.3891601 0.316559,-0.5029297 0.870923,-0.5029297 z" /><path
     inkscape:connector-curvature="0"
     id="path4164"
     style="font-style:normal;font-variant:normal;font-weight:bold;font-stretch:normal;font-size:medium;line-height:125%;font-family:Sans;-inkscape-font-specification:'Sans Bold';letter-spacing:0px;word-spacing:0px;fill:#515151;fill-opacity:1;stroke:none;stroke-width:1px;stroke-linecap:butt;stroke-linejoin:miter;stroke-opacity:1"
     d="m 22.224403,3.8495668 q 0.186847,0 0.267146,-0.1098633 0.08184,-0.1098633 0.08184,-0.3613281 0,-0.2490235 -0.08184,-0.3564453 -0.0803,-0.1074219 -0.267146,-0.1074219 l -0.250158,0 0,0.9350586 0.250158,0 z m -0.250158,0.649414 0,1.3793946 -0.594513,0 0,-3.6450196 0.907983,0 q 0.455536,0 0.66709,0.2416993 0.213099,0.2416992 0.213099,0.7641601 0,0.3613281 -0.111182,0.5932617 -0.109638,0.2319336 -0.332001,0.3417969 0.121991,0.043945 0.217731,0.2001953 0.09728,0.1538086 0.196112,0.46875 l 0.322736,1.0351563 -0.633118,0 -0.281043,-0.9057617 Q 22.462209,4.6991762 22.37419,4.5990785 22.28771,4.4989808 22.142562,4.4989808 l -0.168317,0 z" /></svg>

<svg width="25" height="33" viewBox="0 0 25 33" fill="none" xmlns="http://www.w3.org/2000/svg">
<g clip-path="url(#clip0)">
<path d="M24.4751 0.542297H0.561279V7.54498H24.4751V0.542297Z" fill="white" stroke="#515151" stroke-width="1.08274"/>
<path d="M3.57214 5.67816C3.46302 5.76768 3.34927 5.83523 3.23088 5.8808C3.11249 5.92637 2.98895 5.94916 2.86027 5.94916C2.47628 5.94916 2.17208 5.77989 1.94766 5.44135C1.72323 5.10118 1.61102 4.64056 1.61102 4.05951C1.61102 3.47683 1.72323 3.01621 1.94766 2.67767C2.17208 2.3375 2.47628 2.16742 2.86027 2.16742C2.98895 2.16742 3.11249 2.19021 3.23088 2.23578C3.34927 2.28135 3.46302 2.3489 3.57214 2.43842V3.19281C3.46199 3.07399 3.35338 2.98692 3.24632 2.93158C3.13926 2.87624 3.02653 2.84857 2.90814 2.84857C2.69607 2.84857 2.5293 2.95599 2.40782 3.17084C2.28635 3.38568 2.22561 3.6819 2.22561 4.05951C2.22561 4.43549 2.28635 4.7309 2.40782 4.94574C2.5293 5.16058 2.69607 5.26801 2.90814 5.26801C3.02653 5.26801 3.13926 5.24034 3.24632 5.185C3.35338 5.12966 3.46199 5.04258 3.57214 4.92377V5.67816V5.67816Z" fill="#515151"/>
<path d="M5.11941 2.84857C4.93822 2.84857 4.7977 2.95437 4.69785 3.16595C4.59799 3.37754 4.54806 3.67539 4.54806 4.05951C4.54806 4.442 4.59799 4.73903 4.69785 4.95062C4.7977 5.16221 4.93822 5.26801 5.11941 5.26801C5.30162 5.26801 5.44266 5.16221 5.54252 4.95062C5.64238 4.73903 5.6923 4.442 5.6923 4.05951C5.6923 3.67539 5.64238 3.37754 5.54252 3.16595C5.44266 2.95437 5.30162 2.84857 5.11941 2.84857ZM5.11941 2.16742C5.49001 2.16742 5.78032 2.33506 5.99033 2.67035C6.20034 3.00564 6.30535 3.46869 6.30535 4.05951C6.30535 4.6487 6.20034 5.11094 5.99033 5.44623C5.78032 5.78151 5.49001 5.94916 5.11941 5.94916C4.74983 5.94916 4.45953 5.78151 4.24849 5.44623C4.03848 5.11094 3.93347 4.6487 3.93347 4.05951C3.93347 3.46869 4.03848 3.00564 4.24849 2.67035C4.45953 2.33506 4.74983 2.16742 5.11941 2.16742V2.16742Z" fill="#515151"/>
<path d="M6.75317 2.23334H7.41718L8.25567 4.73334V2.23334H8.8193V5.87836H8.1553L7.3168 3.37836V5.87836H6.75317V2.23334V2.23334Z" fill="#515151"/>
<path d="M9.403 2.23334H10.067L10.9055 4.73334V2.23334H11.4691V5.87836H10.8051L9.96663 3.37836V5.87836H9.403V2.23334V2.23334Z" fill="#515151"/>
<path d="M12.0528 2.23334H13.6572V2.94379H12.6473V3.6225H13.597V4.33295H12.6473V5.16791H13.6912V5.87836H12.0528V2.23334V2.23334Z" fill="#515151"/>
<path d="M16.043 5.67816C15.9339 5.76768 15.8201 5.83523 15.7017 5.8808C15.5834 5.92637 15.4598 5.94916 15.3311 5.94916C14.9472 5.94916 14.6429 5.77989 14.4185 5.44135C14.1941 5.10118 14.0819 4.64056 14.0819 4.05951C14.0819 3.47683 14.1941 3.01621 14.4185 2.67767C14.6429 2.3375 14.9472 2.16742 15.3311 2.16742C15.4598 2.16742 15.5834 2.19021 15.7017 2.23578C15.8201 2.28135 15.9339 2.3489 16.043 2.43842V3.19281C15.9329 3.07399 15.8243 2.98692 15.7172 2.93158C15.6101 2.87624 15.4974 2.84857 15.379 2.84857C15.1669 2.84857 15.0002 2.95599 14.8787 3.17084C14.7572 3.38568 14.6965 3.6819 14.6965 4.05951C14.6965 4.43549 14.7572 4.7309 14.8787 4.94574C15.0002 5.16058 15.1669 5.26801 15.379 5.26801C15.4974 5.26801 15.6101 5.24034 15.7172 5.185C15.8243 5.12966 15.9329 5.04258 16.043 4.92377V5.67816V5.67816Z" fill="#515151"/>
<path d="M16.2623 2.23334H18.3871V2.94379H17.6227V5.87836H17.0282V2.94379H16.2623V2.23334V2.23334Z" fill="#515151"/>
<path d="M19.746 2.84857C19.5648 2.84857 19.4243 2.95437 19.3244 3.16595C19.2246 3.37754 19.1746 3.67539 19.1746 4.05951C19.1746 4.442 19.2246 4.73903 19.3244 4.95062C19.4243 5.16221 19.5648 5.26801 19.746 5.26801C19.9282 5.26801 20.0692 5.16221 20.1691 4.95062C20.2689 4.73903 20.3189 4.442 20.3189 4.05951C20.3189 3.67539 20.2689 3.37754 20.1691 3.16595C20.0692 2.95437 19.9282 2.84857 19.746 2.84857V2.84857ZM19.746 2.16742C20.1166 2.16742 20.4069 2.33506 20.6169 2.67035C20.8269 3.00564 20.9319 3.46869 20.9319 4.05951C20.9319 4.6487 20.8269 5.11094 20.6169 5.44623C20.4069 5.78151 20.1166 5.94916 19.746 5.94916C19.3764 5.94916 19.0861 5.78151 18.8751 5.44623C18.665 5.11094 18.56 4.6487 18.56 4.05951C18.56 3.46869 18.665 3.00564 18.8751 2.67035C19.0861 2.33506 19.3764 2.16742 19.746 2.16742V2.16742Z" fill="#515151"/>
<path d="M22.2244 3.84955C22.349 3.84955 22.438 3.81293 22.4915 3.73969C22.5461 3.66644 22.5734 3.546 22.5734 3.37836C22.5734 3.21234 22.5461 3.09353 22.4915 3.02191C22.438 2.9503 22.349 2.91449 22.2244 2.91449H21.9742V3.84955H22.2244V3.84955ZM21.9742 4.49896V5.87836H21.3797V2.23334H22.2877C22.5914 2.23334 22.8138 2.3139 22.9548 2.47504C23.0969 2.63617 23.1679 2.89089 23.1679 3.2392C23.1679 3.48008 23.1308 3.67784 23.0567 3.83246C22.9836 3.98708 22.873 4.10101 22.7247 4.17426C22.806 4.20355 22.8786 4.27028 22.9424 4.37445C23.0073 4.47699 23.0727 4.63324 23.1386 4.8432L23.4613 5.87836H22.8282L22.5471 4.9726C22.4905 4.7903 22.4329 4.66579 22.3742 4.59906C22.3165 4.53233 22.2393 4.49896 22.1426 4.49896H21.9742V4.49896Z" fill="#515151"/>
</g>
<defs>
<clipPath id="clip0">
<path d="M0 0H25V33H0V0Z" fill="white"/>
</clipPath>
</defs>
</svg>
